!!!COM: Riahi, Hassan
!!!CDT: b.1945
!!!OTL: National Anthem, Iran
!!!ENC: Davis, Matthew J.
!!Vocal Line Only
**kern
*clefG2
*k[f#]
*G:
*M4/4
=1-
4..dd
32dd
32dd
4.dd
12dd
12dd
12dd
=2
8dd
8cc
8dd
8ee
8dd
8r
8.d
16d
=3
4.g
8f#
4e
8e
8g
=4
4f#
8e
8.d
16e
8f#
8g
=5
8a
8b
4cc
4b
8.g
16b
=6
2.a
4ee
=7
4.ee
8dd
8cc
8b
8.a
16g
=8
4..g
16d
8g
8a
8.b
16cc
=9
4b
8a
8g
4a
8dd
8ee
=10
4dd
8cc
8b
4..a
16g
=11
2.g
8a
8b
=12
4.cc
8b
8cc
8dd
8cc
8b
=13
8cc
8b
8a
8g
4.a
8dd
=14
4a
8b
8cc
4.dd
16ee
=15
4dd
8cc
8.b
16a
4.g
8d
=16
8g
8a
8b
8cc
4b
8a
8g
=17
4..a
16g
[2g
=18
8g]
8r
4r
2r
==|!
*-
